packages/katcn/src/icons/svg/textBlock.svg

<svg width="24" height="25" viewBox="0 0 24 25" fill="none" xmlns="http://www.w3.org/2000/svg">
<path d="M15.5 17.396C15.5 16.796 15.1 16.396 14.5 16.396H4.4C3.6 16.396 3 15.796 3 14.996V9.59601C3 8.79601 3.6 8.19601 4.4 8.19601H14.5C15.1 8.19601 15.5 7.79601 15.5 7.19601C15.5 6.59601 15.1 6.19601 14.5 6.19601H4.4C2.5 6.19601 1 7.69601 1 9.59601V14.996C1 16.896 2.5 18.396 4.4 18.396H14.5C15 18.396 15.5 17.996 15.5 17.396Z" fill="black"/>
<path d="M19.6 6.19602H18.7V4.29602H20.2C20.8 4.29602 21.2 3.89602 21.2 3.29602C21.2 2.69602 20.8 2.29602 20.2 2.29602H15.3C14.7 2.29602 14.3 2.69602 14.3 3.29602C14.3 3.89602 14.7 4.29602 15.3 4.29602H16.8V20.296H15.3C14.7 20.296 14.3 20.696 14.3 21.296C14.3 21.896 14.7 22.296 15.3 22.296H20.2C20.8 22.296 21.2 21.896 21.2 21.296C21.2 20.696 20.8 20.296 20.2 20.296H18.7V18.396H19.6C21.5 18.396 23 16.896 23 14.996V9.59602C23 7.69602 21.5 6.19602 19.6 6.19602ZM21 14.996C21 15.796 20.4 16.396 19.6 16.396H18.7V8.19602H19.6C20.4 8.19602 21 8.79602 21 9.59602V14.996Z" fill="black"/>
</svg>

<svg xmlns="http://www.w3.org/2000/svg" fill="none" viewBox="0 0 24 25"><path fill="#000" d="M15.5 17.396c0-.6-.4-1-1-1H4.4c-.8 0-1.4-.6-1.4-1.4v-5.4c0-.8.6-1.4 1.4-1.4h10.1c.6 0 1-.4 1-1s-.4-1-1-1H4.4c-1.9 0-3.4 1.5-3.4 3.4v5.4c0 1.9 1.5 3.4 3.4 3.4h10.1c.5 0 1-.4 1-1"/><path fill="#000" d="M19.6 6.196h-.9v-1.9h1.5c.6 0 1-.4 1-1s-.4-1-1-1h-4.9c-.6 0-1 .4-1 1s.4 1 1 1h1.5v16h-1.5c-.6 0-1 .4-1 1s.4 1 1 1h4.9c.6 0 1-.4 1-1s-.4-1-1-1h-1.5v-1.9h.9c1.9 0 3.4-1.5 3.4-3.4v-5.4c0-1.9-1.5-3.4-3.4-3.4m1.4 8.8c0 .8-.6 1.4-1.4 1.4h-.9v-8.2h.9c.8 0 1.4.6 1.4 1.4z"/></svg>
